X:1
T:Title
%%score { 1 | 2 }
L:1/8
M:4/4
K:F
V:1 treble nm="Grand Piano"
V:2 bass 
V:1
 z4 z2 z[Q:1/4=86] C | FFFG A3 A | [DG][DF][CE]D C3 C | FFFG AAGA | [EG]6 z C | FFFG A3 A | %6
[M:7/8] AAB c d3 |[M:1/8] [Fd] |[M:4/4] [Fc][Fc][FA][Fc] [Ec][DEB][EA][EG] |[M:7/8] F-F-F- F3 z | %10
[M:1/8] c |[M:4/4] cc=Bc dcFG | A6 z c | cAAG FFEF | [EG]6 z C | FFFG A3 A |[M:7/8] AAB c d3 | %17
[M:1/8] [Fd] |[M:4/4] [Fc][Fc][FA][Fc] [Ec][DEB][CEA][CEG] |[M:15/8] [A,F]6 z3 z6 |] %20
V:2
 z4 z2 z [F,A,] | [F,A,C][F,A,C][F,A,C][F,B,C] [F,CF]3 [F,CF] | %2
 [B,,B,][B,,B,][B,,B,][B,,F,B,] [F,A,]3 [F,A,] | %3
 [F,A,C][F,A,C][F,A,C][F,B,C][K:treble] [F,CF][F,CF][G,=B,F][K:bass][G,B,D] | [C,C]6 z [C,B,] | %5
 [F,A,C][F,A,C][F,A,C][F,B,C][K:treble] [F,CF]3 [F,CF] |[M:7/8] [F,CF][F,CF][G,CF] [A,CF] [B,F]3 | %7
[M:1/8][K:bass] [B,,B,] |[M:4/4] [C,A,][C,A,][C,C][C,A,] [C,G,]C,[C,C][C,C] | %9
[M:7/8] [F,A,]-[F,A,]-[F,A,]- [F,A,]3 z |[M:1/8] [F,A,F] | %11
[M:4/4] [F,A,F][F,A,F][F,_A,F][F,=A,F] [F,B,F][F,A,F][F,A,][F,B,F] | [F,CF]6 z [F,A,F] | %13
 [F,A,F][F,CF][F,CF][F,B,F] [G,=B,D][G,B,D][G,B,D][G,B,D] | [C,C]6 z [C,B,] | %15
 [F,A,C][F,A,C][F,A,C][F,B,C][K:treble] [F,CF]3 [F,CF] |[M:7/8] [F,CF][F,CF][G,CF] [A,CF] [B,F]3 | %17
[M:1/8][K:bass] [B,,B,] |[M:4/4] [C,A,][C,A,][C,C][C,A,] [C,G,]C,C,C, |[M:15/8] F,6 z3 z6 |] %20

